www/assets/images/test_icons/flags/CA.svg

<svg fill="none" height="15" viewBox="0 0 21 15" width="21" xmlns="http://www.w3.org/2000/svg" xmlns:xlink="http://www.w3.org/1999/xlink"><mask id="a" height="15" maskUnits="userSpaceOnUse" width="21" x="0" y="0"><path d="m19 0h-17c-1.10457 0-2 .89543-2 2v11c0 1.1046.89543 2 2 2h17c1.1046 0 2-.8954 2-2v-11c0-1.10457-.8954-2-2-2z" fill="#fff"/></mask><g mask="url(#a)"><path d="m19 0h-17c-1.10457 0-2 .89543-2 2v11c0 1.1046.89543 2 2 2h17c1.1046 0 2-.8954 2-2v-11c0-1.10457-.8954-2-2-2z" fill="#fff"/><path clip-rule="evenodd" d="m0 0h5v15h-5zm16 0h5v15h-5zm-5.5 4-1 2-1.5-1v2l-1 1 2 1h1v2h1v-2h1l2-1-1-1v-2l-1.6 1z" fill="#f00" fill-rule="evenodd"/><path d="m19 .5h-17c-.82843 0-1.5.67157-1.5 1.5v11c0 .8284.67157 1.5 1.5 1.5h17c.8284 0 1.5-.6716 1.5-1.5v-11c0-.82843-.6716-1.5-1.5-1.5z" stroke="#000" stroke-opacity=".1"/></g></svg>

<svg width="21" height="15" viewBox="0 0 21 15" fill="none" xmlns="http://www.w3.org/2000/svg">
<mask id="mask0_3_183" style="mask-type:alpha" maskUnits="userSpaceOnUse" x="0" y="0" width="21" height="15">
<path d="M19 0H2C0.89543 0 0 0.89543 0 2V13C0 14.1046 0.89543 15 2 15H19C20.1046 15 21 14.1046 21 13V2C21 0.89543 20.1046 0 19 0Z" fill="white"/>
</mask>
<g mask="url(#mask0_3_183)">
<path d="M19 0H2C0.89543 0 0 0.89543 0 2V13C0 14.1046 0.89543 15 2 15H19C20.1046 15 21 14.1046 21 13V2C21 0.89543 20.1046 0 19 0Z" fill="white"/>
<path fill-rule="evenodd" clip-rule="evenodd" d="M0 0H5V15H0V0ZM16 0H21V15H16V0ZM10.5 4L9.5 6L8 5V7L7 8L9 9H10V11H11V9H12L14 8L13 7V5L11.4 6L10.5 4Z" fill="#FF0000"/>
<path d="M19 0.5H2C1.17157 0.5 0.5 1.17157 0.5 2V13C0.5 13.8284 1.17157 14.5 2 14.5H19C19.8284 14.5 20.5 13.8284 20.5 13V2C20.5 1.17157 19.8284 0.5 19 0.5Z" stroke="black" stroke-opacity="0.1"/>
</g>
</svg>
